!!!SOCIAL_FUNCTION:	social gatherings
!!!PDT:	1939
!!!OTL: No_86_"They_Come_From_Under_the_Water".krn
!!!LANG: Non-Tone
!!!LING_GROUP: Wakashan
!!!REG: Pacific Northwest
**kern
*staff1
=1-
*clefF4
*k[f#c#]
*M3/4
2r
8r
8e\
=2
12e\L
12d#\
12dn\J
4.d\
8e\
=3||
*M2/4
8.d\L
16B\Jk
8B\
16r
16fn\
=4||
*M3/4
(12fn\L
12e\)
12f\J
20f\LL
20e\
20d#\
20dn\
(20f#\JJ
12fn\L)
12e\
12d\J
=5
8.d\L
16B\Jk
8B\
16r
16f#\
8.e\L
16d\Jk
=6||
*M2/4
[4d\
8.d\L]
16e\Jk
=7
8.d\L
16B\Jk
8B\
16r
16e\
=8
8.d\L
16B\Jk
8.d\L
16B\Jk
=9||
*M3/4
12e\L
12d\
12B\J
12B\L
12A\
12F#\J
8D\
16r
16A\
=10||
*M2/4
8.F#\L
16A\Jk
12F#\L
12E\
12D\J
=11
16E\LK
8.D\J
4D\
=12
2D\
==
*-
